X:16
T:Another Type of Waltz. WI.016
M:3/4
L:1/8
Q:1/4=120
S:Wm Irwin, 1838 MS, AGG’s Transcription
R:.Waltz
O:England
A:Lake District
Z:vmp.Chris Partington.2005
K:G
G/Bd/|c>BA>ed>c|B>DG3B|A>DF3A|B>D” etc”G2zzz||!
Bc|dgec’af|gbgdBG|” etc”zzz|zzz|]

